CN6T1/184/aimg/feliz.svg

<svg clip-rule="evenodd" fill-rule="evenodd" stroke-linejoin="round" stroke-miterlimit="2" viewBox="0 0 175 175" xmlns="http://www.w3.org/2000/svg"><g fill-rule="nonzero"><path d="m-21.26-21.26c11.742 0 21.26 9.518 21.26 21.26s-9.518 21.26-21.26 21.26-21.26-9.518-21.26-21.26 9.518-21.26 21.26-21.26" fill="#ffd201" transform="matrix(0 4.09701577761 -4.09704911097 0 87.18424564 174.20478371)"/><g fill="#231f20"><path d="m0-2.957c.219-.136.51.019.51.278v.006c0 1.551-1.257 2.809-2.808 2.809-1.552 0-2.808-1.258-2.808-2.809v-.006c0-.259.291-.414.511-.278.668.413 1.454.651 2.297.651.842 0 1.629-.238 2.298-.651" transform="matrix(4.09704911097 0 0 -4.09701577761 144.76762504 63.75886202)"/><path d="m0-2.957c.22-.136.51.019.511.278v.006c0 1.551-1.258 2.809-2.809 2.809-1.552 0-2.808-1.258-2.808-2.809v-.006c0-.259.291-.414.511-.278.667.413 1.454.651 2.297.651s1.63-.238 2.298-.651" transform="matrix(4.09704911097 0 0 -4.09701577761 48.43421464 63.75886202)"/><path d="m0 6.798c-.679-.23-1.066-.97-.802-1.637 1.584-4.007 6.224-7.383 11.673-7.383 5.447 0 10.089 3.376 11.673 7.383.263.667-.124 1.407-.802 1.637-6.567 2.222-15.176 2.222-21.742 0" transform="matrix(4.09704911097 0 0 -4.09701577761 42.64671001 128.1505802)"/></g><path d="m5.562-6.132c-.858 1.74-1.372 3.731-1.372 5.847 0 2.115.514 4.106 1.372 5.847 1.213-1.611 1.942-3.638 1.942-5.847s-.729-4.237-1.942-5.847" fill="#ef3d32" transform="matrix(0 -4.09701577761 4.09704911097 0 88.35507991 154.41726788)"/></g></svg>

<?xml version="1.0" encoding="UTF-8" standalone="no"?>
<!DOCTYPE svg PUBLIC "-//W3C//DTD SVG 1.1//EN" "http://www.w3.org/Graphics/SVG/1.1/DTD/svg11.dtd">
<svg width="100%" height="100%" viewBox="0 0 175 175" version="1.1" xmlns="http://www.w3.org/2000/svg" xmlns:xlink="http://www.w3.org/1999/xlink" xml:space="preserve" xmlns:serif="http://www.serif.com/" style="fill-rule:evenodd;clip-rule:evenodd;stroke-linejoin:round;stroke-miterlimit:2;">
    <g transform="matrix(1,0,0,1,-11948.9,-4184.7)">
        <g transform="matrix(4.16667,0,0,4.16667,10895.7,3587.6)">
            <g transform="matrix(0,0.983283,-0.983291,0,273.692,185.113)">
                <path d="M-21.26,-21.26C-9.518,-21.26 0,-11.742 0,0C0,11.742 -9.518,21.26 -21.26,21.26C-33.002,21.26 -42.52,11.742 -42.52,0C-42.52,-11.742 -33.002,-21.26 -21.26,-21.26" style="fill:rgb(255,210,1);fill-rule:nonzero;"/>
            </g>
        </g>
        <g transform="matrix(4.16667,0,0,4.16667,10895.7,3587.6)">
            <g transform="matrix(0.983291,0,0,-0.983283,287.512,158.606)">
                <path d="M0,-2.957C0.219,-3.093 0.51,-2.938 0.51,-2.679L0.51,-2.673C0.51,-1.122 -0.747,0.136 -2.298,0.136C-3.85,0.136 -5.106,-1.122 -5.106,-2.673L-5.106,-2.679C-5.106,-2.938 -4.815,-3.093 -4.595,-2.957C-3.927,-2.544 -3.141,-2.306 -2.298,-2.306C-1.456,-2.306 -0.669,-2.544 0,-2.957" style="fill:rgb(35,31,32);fill-rule:nonzero;"/>
            </g>
        </g>
        <g transform="matrix(4.16667,0,0,4.16667,10895.7,3587.6)">
            <g transform="matrix(0.983291,0,0,-0.983283,264.392,158.606)">
                <path d="M0,-2.957C0.22,-3.093 0.51,-2.938 0.511,-2.679L0.511,-2.673C0.511,-1.122 -0.747,0.136 -2.298,0.136C-3.85,0.136 -5.106,-1.122 -5.106,-2.673L-5.106,-2.679C-5.106,-2.938 -4.815,-3.093 -4.595,-2.957C-3.928,-2.544 -3.141,-2.306 -2.298,-2.306C-1.455,-2.306 -0.668,-2.544 0,-2.957" style="fill:rgb(35,31,32);fill-rule:nonzero;"/>
            </g>
        </g>
        <g transform="matrix(4.16667,0,0,4.16667,10895.7,3587.6)">
            <g transform="matrix(0.983291,0,0,-0.983283,263.003,174.06)">
                <path d="M0,6.798C-0.679,6.568 -1.066,5.828 -0.802,5.161C0.782,1.154 5.422,-2.222 10.871,-2.222C16.318,-2.222 20.96,1.154 22.544,5.161C22.807,5.828 22.42,6.568 21.742,6.798C15.175,9.02 6.566,9.02 0,6.798" style="fill:rgb(35,31,32);fill-rule:nonzero;"/>
            </g>
        </g>
        <g transform="matrix(4.16667,0,0,4.16667,10895.7,3587.6)">
            <g transform="matrix(0,-0.983283,0.983291,0,273.973,180.364)">
                <path d="M5.562,-6.132C4.704,-4.392 4.19,-2.401 4.19,-0.285C4.19,1.83 4.704,3.821 5.562,5.562C6.775,3.951 7.504,1.924 7.504,-0.285C7.504,-2.494 6.775,-4.522 5.562,-6.132" style="fill:rgb(239,61,50);fill-rule:nonzero;"/>
            </g>
        </g>
    </g>
</svg>
